public/assets/snapchat-gray.svg

<svg width="23" height="21" viewBox="0 0 23 21" fill="none" xmlns="http://www.w3.org/2000/svg">
<path d="M21.1665 14.6144C20.5432 14.4707 19.9554 14.2043 19.4382 13.831C18.9209 13.4577 18.4848 12.9852 18.1558 12.4415C18.0057 12.2219 17.7736 12.0703 17.5106 12.0201C17.2477 11.9699 16.9753 12.0253 16.7535 12.1739C16.5317 12.3226 16.3787 12.5524 16.328 12.8128C16.2773 13.0733 16.3332 13.343 16.4833 13.5626C17.1089 14.5077 17.9372 15.3046 18.9092 15.8966C18.7731 15.922 18.6252 15.9464 18.4635 15.9718C18.1762 16.0323 17.916 16.182 17.7205 16.3991C17.5251 16.6161 17.4047 16.8893 17.3768 17.1788C16.7036 17.0651 16.016 17.0638 15.3424 17.1749C14.616 17.3337 13.9383 17.6614 13.3651 18.1309C12.7756 18.6487 12.0276 18.9554 11.241 19.002H10.9777C10.1902 18.9553 9.44143 18.6478 8.85156 18.129C8.2866 17.6656 7.61938 17.3404 6.90393 17.1798C6.22148 17.0719 5.52595 17.0732 4.84392 17.1837C4.81729 16.8956 4.69909 16.6232 4.5063 16.4058C4.31351 16.1884 4.05607 16.0371 3.77099 15.9737C3.61222 15.9493 3.46627 15.9249 3.33216 15.8995C4.01856 15.5063 4.63165 14.9993 5.14469 14.4005C5.38145 14.1286 5.59581 13.8382 5.78569 13.5323C5.92739 13.3075 5.97317 13.0362 5.91298 12.778C5.85278 12.5198 5.69154 12.2958 5.46466 12.1552C5.23779 12.0147 4.96385 11.9691 4.70304 12.0284C4.44223 12.0878 4.21588 12.2473 4.07374 12.4718C3.93921 12.6885 3.78788 12.8945 3.6211 13.088C2.97574 13.8882 2.0604 14.4309 1.04332 14.6163C0.748122 14.6626 0.479865 14.8133 0.288215 15.0404C0.0965657 15.2676 -0.00549558 15.5557 0.000926495 15.8517C0.000587204 16.0356 0.0402781 16.2175 0.117297 16.3849C0.435822 17.1007 1.2839 17.5529 2.92878 17.8595L2.96035 17.9894C2.98895 18.1075 3.01852 18.2276 3.05304 18.337C3.13045 18.6148 3.29969 18.8589 3.5337 19.0303C3.76771 19.2017 4.05297 19.2904 4.3439 19.2823C4.54946 19.2771 4.75369 19.248 4.95235 19.1954C5.48059 19.0894 6.02327 19.0739 6.55681 19.1495C6.97521 19.2722 7.36201 19.4827 7.69088 19.7667C8.61922 20.5257 9.77461 20.9599 10.9777 21.0021H11.241C12.4516 20.9581 13.6136 20.5194 14.5465 19.7541C14.877 19.4693 15.2675 19.2611 15.6895 19.1447C15.8975 19.1085 16.1084 19.0908 16.3196 19.092C16.6441 19.0914 16.9676 19.1271 17.284 19.1984C17.489 19.2363 17.6968 19.2576 17.9053 19.2619C18.1889 19.2695 18.4669 19.1827 18.6948 19.0154C18.9228 18.8481 19.0875 18.61 19.1627 18.3391C19.2011 18.217 19.2307 18.0998 19.2583 17.9846L19.2899 17.8606C20.9298 17.5549 21.7809 17.1057 22.0846 16.4201C22.1614 16.2712 22.2052 16.1077 22.2128 15.9406C22.2378 15.63 22.1442 15.3213 21.9504 15.0758C21.7567 14.8302 21.477 14.6655 21.1665 14.6144V14.6144ZM2.83905 10.1485C3.04566 10.1873 3.25933 10.1615 3.45049 10.0747C3.64165 9.98793 3.80084 9.84446 3.90606 9.66416C4.30603 9.86575 4.74468 9.98092 5.19297 10.002C5.66861 10.0083 6.12765 9.82905 6.47102 9.50305C6.57964 9.40272 6.66459 9.27991 6.71982 9.14337C6.77504 9.00682 6.79918 8.85989 6.79052 8.71305L6.75404 8.11149C6.58863 6.92461 6.6421 5.71786 6.91186 4.5499C7.25264 3.78276 7.81437 3.13221 8.52672 2.6797C9.23906 2.22719 10.0704 1.99283 10.9166 2.00596L11.3081 2.00205C12.1535 1.99087 12.9836 2.22643 13.6947 2.67935C14.4058 3.13227 14.9665 3.78249 15.3069 4.54893C15.5767 5.71786 15.6302 6.92555 15.4647 8.11338L15.4549 8.27647L15.4272 8.71983C15.4216 8.86424 15.4469 9.0082 15.5012 9.14231C15.5556 9.27642 15.6379 9.39767 15.7428 9.49815C16.0827 9.82265 16.5369 10.0031 17.009 10.0011C17.4472 9.96318 17.8733 9.83901 18.2624 9.63584C18.3413 9.81377 18.4707 9.96512 18.635 10.0714C18.7992 10.1777 18.9912 10.2344 19.1874 10.2345H19.2052C19.473 10.2298 19.7279 10.12 19.914 9.92914C20.1 9.73831 20.2019 9.48211 20.1972 9.2169C20.171 8.88295 20.0423 8.56493 19.8283 8.30553C19.6143 8.04613 19.3253 7.85776 19 7.76572C18.7632 7.66966 18.5094 7.62115 18.2534 7.623C17.9975 7.62484 17.7444 7.67701 17.509 7.77647C17.6859 6.41935 17.5638 5.04037 17.151 3.73447C16.6541 2.6114 15.8338 1.65835 14.7928 0.994481C13.7519 0.330617 12.5363 -0.0145878 11.2983 0.00203835L10.9018 0.00594829C9.66688 -0.00899714 8.45488 0.336788 7.41726 1.0001C6.37965 1.6634 5.56243 2.61482 5.06773 3.73545C4.65187 5.05889 4.53075 6.4559 4.71272 7.83018C4.67821 7.81455 4.64073 7.79698 4.6003 7.77842C4.35355 7.67954 4.08878 7.63235 3.8227 7.63982C3.55661 7.6473 3.29498 7.70927 3.05428 7.82185C2.81358 7.93442 2.59904 8.09515 2.42418 8.2939C2.24932 8.49266 2.11794 8.72513 2.0383 8.97666C1.98784 9.23718 2.04381 9.50689 2.19394 9.72659C2.34406 9.9463 2.57607 10.098 2.83905 10.1485Z" fill="#6B7280"/>
</svg>

<svg width="23" height="21" fill="none" xmlns="http://www.w3.org/2000/svg"><path d="M21.166 14.614a4.793 4.793 0 0 1-1.728-.783 4.74 4.74 0 0 1-1.282-1.39 1.018 1.018 0 0 0-1.402-.268.992.992 0 0 0-.27 1.389 7.73 7.73 0 0 0 2.425 2.335c-.136.025-.284.05-.445.075-.288.06-.548.21-.743.427a1.36 1.36 0 0 0-.344.78 6.18 6.18 0 0 0-2.035-.004 4.707 4.707 0 0 0-1.977.956 3.536 3.536 0 0 1-2.124.871h-.263a3.537 3.537 0 0 1-2.126-.873 4.691 4.691 0 0 0-1.948-.95 6.518 6.518 0 0 0-2.06.005 1.361 1.361 0 0 0-.338-.778 1.384 1.384 0 0 0-.735-.432 12.933 12.933 0 0 1-.439-.075c.687-.393 1.3-.9 1.813-1.498.236-.272.45-.563.64-.869a.992.992 0 0 0-.32-1.377 1.019 1.019 0 0 0-1.391.317 4.913 4.913 0 0 1-.453.616 4.302 4.302 0 0 1-2.578 1.528 1.24 1.24 0 0 0-.755.424 1.217 1.217 0 0 0-.287.812c0 .184.04.366.116.533.319.716 1.167 1.168 2.812 1.474l.031.13c.029.119.059.239.093.348.077.278.247.522.48.693.235.172.52.26.81.252.206-.005.41-.034.61-.087a4.761 4.761 0 0 1 1.604-.046c.418.123.805.334 1.134.618a5.498 5.498 0 0 0 3.287 1.235h.263a5.529 5.529 0 0 0 3.306-1.248c.33-.285.72-.493 1.143-.61.208-.035.418-.053.63-.052.324 0 .648.035.964.106.205.038.413.06.621.064.284.008.562-.08.79-.247.228-.167.392-.405.468-.676.038-.122.068-.24.095-.354l.032-.124c1.64-.306 2.49-.755 2.795-1.44.076-.15.12-.313.128-.48.025-.311-.069-.62-.263-.865a1.258 1.258 0 0 0-.784-.462ZM2.84 10.148a1.023 1.023 0 0 0 1.067-.484c.4.202.839.317 1.287.338.476.006.935-.173 1.278-.499a1 1 0 0 0 .32-.79l-.037-.602a9.808 9.808 0 0 1 .158-3.561 4.271 4.271 0 0 1 1.615-1.87 4.333 4.333 0 0 1 2.39-.674l.391-.004a4.337 4.337 0 0 1 2.387.677 4.276 4.276 0 0 1 1.612 1.87 9.82 9.82 0 0 1 .158 3.564l-.01.163-.028.444a1.02 1.02 0 0 0 .316.778c.34.325.794.505 1.266.503a3.328 3.328 0 0 0 1.253-.365 1.018 1.018 0 0 0 .925.599h.018c.268-.005.523-.115.709-.306a.995.995 0 0 0 .283-.712 1.633 1.633 0 0 0-.369-.911 1.659 1.659 0 0 0-.828-.54 1.949 1.949 0 0 0-1.491.01 9.384 9.384 0 0 0-.358-4.042 6.252 6.252 0 0 0-2.358-2.74 6.342 6.342 0 0 0-3.495-.992l-.396.004A6.329 6.329 0 0 0 7.417 1a6.239 6.239 0 0 0-2.35 2.735 9.498 9.498 0 0 0-.354 4.095c-.035-.015-.072-.033-.113-.052a1.944 1.944 0 0 0-2.176.516 1.904 1.904 0 0 0-.386.683c-.05.26.006.53.156.75.15.22.382.371.645.421Z" fill="#6B7280"/></svg>
